svgs/sharp-solid/ethernet.svg

<svg xmlns="http://www.w3.org/2000/svg" viewBox="0 0 512 512"><!--! Font Awesome Pro 6.6.0 by @fontawesome - https://fontawesome.com License - https://fontawesome.com/license (Commercial License) Copyright 2024 Fonticons, Inc. --><path d="M0 192L0 448l96 0 0-112 0-16 32 0 0 16 0 112 64 0 0-112 0-16 32 0 0 16 0 112 64 0 0-112 0-16 32 0 0 16 0 112 64 0 0-112 0-16 32 0 0 16 0 112 96 0 0-256-64 0 0-64-64 0 0-64L128 64l0 64-64 0 0 64L0 192z"/></svg>

<svg xmlns="http://www.w3.org/2000/svg" viewBox="0 0 512 512"><!--! Font Awesome Pro 6.4.0 by @fontawesome - https://fontawesome.com License - https://fontawesome.com/license (Commercial License) Copyright 2023 Fonticons, Inc. --><path d="M0 192V448H96V336 320h32v16V448h64V336 320h32v16V448h64V336 320h32v16V448h64V336 320h32v16V448h96V192H448V128H384V64H128v64H64v64H0z"/></svg>
